src/shared/assets/images/default-avatar.svg

<svg width="358" height="358" fill="none" xmlns="http://www.w3.org/2000/svg"><rect width="358" height="358" rx="100" fill="#E5E5EA"/><path fill-rule="evenodd" clip-rule="evenodd" d="M232.702 143.2c0 29.658-24.042 53.7-53.7 53.7s-53.7-24.042-53.7-53.7 24.042-53.7 53.7-53.7 53.7 24.042 53.7 53.7Zm-17.9 0c0 19.772-16.028 35.8-35.8 35.8s-35.8-16.028-35.8-35.8 16.028-35.8 35.8-35.8 35.8 16.028 35.8 35.8Z" fill="#000"/><path d="M179.002 223.75c-57.946 0-107.317 34.264-126.124 82.269a180.207 180.207 0 0 0 14.458 12.888c14.004-44.073 57.937-77.257 111.666-77.257 53.73 0 97.662 33.184 111.667 77.257a180.204 180.204 0 0 0 14.457-12.888c-18.807-48.005-68.178-82.269-126.124-82.269Z" fill="#000"/></svg>

<svg width="358" height="358" viewBox="0 0 358 358" fill="none" xmlns="http://www.w3.org/2000/svg">
<rect width="358" height="358" rx="100" fill="#E5E5EA"/>
<path fill-rule="evenodd" clip-rule="evenodd" d="M232.702 143.2C232.702 172.858 208.66 196.9 179.002 196.9C149.344 196.9 125.302 172.858 125.302 143.2C125.302 113.542 149.344 89.5 179.002 89.5C208.66 89.5 232.702 113.542 232.702 143.2ZM214.802 143.2C214.802 162.972 198.774 179 179.002 179C159.23 179 143.202 162.972 143.202 143.2C143.202 123.428 159.23 107.4 179.002 107.4C198.774 107.4 214.802 123.428 214.802 143.2Z" fill="black"/>
<path d="M179.002 223.75C121.056 223.75 71.6852 258.014 52.8784 306.019C57.4599 310.568 62.2861 314.871 67.3356 318.907C81.34 274.834 125.273 241.65 179.002 241.65C232.732 241.65 276.664 274.834 290.669 318.907C295.718 314.871 300.545 310.568 305.126 306.019C286.319 258.014 236.948 223.75 179.002 223.75Z" fill="black"/>
</svg>
